barfriends-site/frontend/static/images/joinimg/howto/line.svg

<svg height="3641" viewBox="0 0 60 3641" width="60" xmlns="http://www.w3.org/2000/svg"><path d="m16 3600v-859h-16v-41h16v-859h-16v-41h16v-859h-16v-41h16v-859h-16v-41h60v41h-15v859h15v41h-15v859h15v41h-15v859h15v41h-15v859h15v41h-60v-41z" fill-rule="evenodd"/></svg>

<?xml version="1.0" encoding="UTF-8"?>
<svg width="60px" height="3641px" viewBox="0 0 60 3641" version="1.1" xmlns="http://www.w3.org/2000/svg" xmlns:xlink="http://www.w3.org/1999/xlink">
    <!-- Generator: Sketch 53.2 (72643) - https://sketchapp.com -->
    <title>Combined Shape</title>
    <desc>Created with Sketch.</desc>
    <g id="Join-Tab" stroke="none" stroke-width="1" fill="none" fill-rule="evenodd">
        <path d="M16,3600 L16,2741 L0,2741 L0,2700 L16,2700 L16,1841 L0,1841 L0,1800 L16,1800 L16,941 L0,941 L0,900 L16,900 L16,41 L0,41 L0,0 L60,0 L60,41 L45,41 L45,900 L60,900 L60,941 L45,941 L45,1800 L60,1800 L60,1841 L45,1841 L45,2700 L60,2700 L60,2741 L45,2741 L45,3600 L60,3600 L60,3641 L0,3641 L0,3600 L16,3600 Z" id="Combined-Shape" fill="#000000"></path>
    </g>
</svg>
